X:901
T:Miss Rowan Davies #1
C:Joe Buchanan's Scottish Tome - Page 495.2
I:495 2
Z:Carl Allison
C:Phil Cunningham
R:Waltz
L:1/4
M:3/4
K:G
B/A/ | G2 D | D> E F | G3- | G g f |
e> G G | d2 G/B/ | A3 | B2 A |
G2 D | D> E F | G3- | G A B |
E c> A | F2 G | G3- | G3 :|
G/F/ | E3 | e2 G/G/ | d3- | d3 B A/d/ |
G> A B | e G> A | B3 | B> c d |
e2 E | F> G A/G/ | G3- | G A B |
E c A | F2 G | G3- | G2 :|

